X:690
T:The Twenty Eighth of January
M:4/4
L:1/8
K:A
A,A, CC DD FF|A,A, CC D2 AB|cBAG EGAB|cBcd e4|
A,A, CC DD FF|A,A, CC D2 ef|gfed cBAG|1 EG AB A4:|2 EG AB A2 (3efg||
a2 ab ageg|agab ag ef|g2 ga gfef|gfga b3 z|
a3 b ageg|agab a2 ef| gfed cBAG|1 EGAB A2 (3efg:|2 EGAB A3 Z ||
